X:117
T:Moon and Seven Stars
S:Jim Coon to CoMandoList TOW
R:jig
M:6/8
L:1/8
Q:3/8=130
K:D
A|"D"d2A AGF|"G"GAB"D"A2A|
"G"Bcd efg|"A7"f2e edc|!
"D"d2A AGF|"G"GAB "D"A2A|
"G"Bcd efg|1"A7"Adc "D"d2:|2"A7"Adc "D"d3||!
"A7"e3 e3|efg"D" f3|
"A7"efg "D"fed|"E"cdB "A7"A2A|!
"G"BGB "D"A2A|"G"BGB "D"A2A|
"G"Bcd efg|1"A7"Adc "D"d3:|2"A7"Adc "D"d2||!
